packages/styles/assets/img/flags/VC.svg

<svg width="24" height="16" viewBox="0 0 24 16" fill="none" xmlns="http://www.w3.org/2000/svg">
    <g clip-path="url(#clip0_13761_68261)">
        <path d="M24 -0.00250244H0V15.995H24V-0.00250244Z" fill="#FFDA44" />
        <path d="M8.0025 -0.00250244H0V15.995H8.0025V-0.00250244Z" fill="#0035AD" />
        <path d="M24.0001 -0.00250244H15.9976V15.995H24.0001V-0.00250244Z" fill="#6DA544" />
        <path d="M10.0421 9.30499L8.47461 6.95749L10.0421 4.60999L11.6096 6.95749L10.0421 9.30499Z" fill="#6DA544" />
        <path d="M13.9576 9.30499L12.3901 6.95749L13.9576 4.60999L15.5251 6.95749L13.9576 9.30499Z" fill="#6DA544" />
        <path d="M12.0001 12.4325L10.4326 10.085L12.0001 7.73749L13.5676 10.085L12.0001 12.4325Z" fill="#6DA544" />
    </g>
    <defs>
        <clipPath id="clip0_13761_68261">
            <rect width="24" height="16" fill="white" />
        </clipPath>
    </defs>
</svg>

<svg xmlns="http://www.w3.org/2000/svg" width="24" height="16" fill="none" viewBox="0 0 24 16">
    <g clip-path="url(#clip0)">
        <path fill="#FFDA44" d="M24-.003H0v15.998h24V-.003z" />
        <path fill="#338AF3" d="M8.002-.003H0v15.998h8.002V-.003z" />
        <path
            fill="#6DA544"
            d="M24-.003h-8.002v15.998H24V-.003zM10.043 9.305L8.475 6.957l1.568-2.347 1.567 2.347-1.567 2.348zm3.915 0L12.39 6.957l1.568-2.347 1.567 2.347-1.567 2.348zM12 12.432l-1.567-2.347L12 7.737l1.568 2.348L12 12.432z"
        />
    </g>
    <defs>
        <clipPath id="clip0">
            <path fill="#fff" d="M0 0h24v16H0z" />
        </clipPath>
    </defs>
</svg>
